common/resources/fonts/svg/progress.svg

<?xml version="1.0" encoding="UTF-8"?>
<svg width="1024px" height="1024px" viewBox="0 0 1024 1024" version="1.1" xmlns="http://www.w3.org/2000/svg" xmlns:xlink="http://www.w3.org/1999/xlink">
    <!-- Generator: Sketch 42 (36781) - http://www.bohemiancoding.com/sketch -->
    <title>progress</title>
    <desc>Created with Sketch.</desc>
    <defs></defs>
    <g id="Page-1" stroke="none" stroke-width="1" fill="none" fill-rule="evenodd">
        <g id="progress" fill-rule="nonzero" fill="#2C2C2C">
            <path d="M98,537.5 C98,310.273307 282.273307,126 509.5,126 C736.726691,126 921,310.273307 921,537.5 C921,764.726691 736.726691,949 509.5,949 C282.273307,949 98,764.726691 98,537.5 Z M708.866651,576.777778 C709.379277,574.21164 708.354024,571.645503 706.816143,569.592592 C705.278263,567.026455 702.202502,566 699.639367,566 L642.737786,566 C638.636771,566 635.048383,568.566138 634.023129,572.671957 C618.644323,627.587301 568.919518,667.619048 509.454803,667.619048 C477.15931,667.619048 447.426953,655.814815 424.871371,635.798942 L479.209818,581.910053 C481.772952,579.343915 482.285579,575.238095 481.260326,571.645503 C479.722445,568.05291 476.134057,566 472.545669,566 L297.227283,566 C292.101015,566 288,570.10582 288,575.238095 L288,750.761905 C288,754.354497 290.050508,757.94709 293.638895,759.486773 C294.664149,760 296.20203,760 297.227283,760 C299.790418,760 301.840925,758.973545 303.891433,757.433862 L372.583432,688.148148 C408.979939,721.507936 456.654236,741.523809 509.454803,741.523809 C608.391787,741.523809 690.412084,670.698413 708.866651,576.777778 Z M310.133349,499.222222 C309.620723,501.78836 310.645976,504.354497 312.183857,506.920635 C313.721737,508.973545 316.284872,510 319.360633,510 L376.262214,510 C380.363229,510 383.951617,507.433862 384.976871,503.328043 C400.355677,448.412699 450.080482,408.380952 509.545197,408.380952 C541.84069,408.380952 571.573047,420.185185 594.128629,440.201058 L539.790182,494.089947 C537.227048,496.656085 536.714421,500.761905 537.739674,504.354497 C539.277555,507.94709 542.865943,510 546.454331,510 L721.772717,510 C726.898985,510 731,505.89418 731,500.761905 L731,325.238095 C731,321.645503 728.949492,318.05291 725.361105,316.513227 C724.335851,316 722.79797,316 721.772717,316 C719.209582,316 717.159075,317.026455 715.108567,318.566138 L646.416568,387.851852 C610.020061,354.492064 562.345764,334.476191 509.545197,334.476191 C410.608213,334.476191 328.075289,405.301587 310.133349,499.222222 Z" id="Combined-Shape"></path>
        </g>
    </g>
</svg>

<svg width="1024" height="1024" viewBox="0 0 1024 1024">
    <path d="M98 537.5C98 310.273 282.273 126 509.5 126S921 310.273 921 537.5 736.727 949 509.5 949 98 764.727 98 537.5zm610.867 39.278c.512-2.566-.513-5.132-2.05-7.185-1.539-2.567-4.614-3.593-7.178-3.593h-56.901c-4.101 0-7.69 2.566-8.715 6.672-15.379 54.915-65.103 94.947-124.568 94.947-32.296 0-62.028-11.804-84.584-31.82l54.339-53.889c2.563-2.566 3.076-6.672 2.05-10.264-1.538-3.593-5.126-5.646-8.714-5.646H297.227a9.194 9.194 0 0 0-9.227 9.238v175.524c0 3.592 2.05 7.185 5.639 8.725 1.025.513 2.563.513 3.588.513 2.563 0 4.614-1.026 6.664-2.566l68.692-69.286c36.397 33.36 84.071 53.376 136.872 53.376 98.937 0 180.957-70.826 199.412-164.746zm-398.734-77.556c-.512 2.566.513 5.132 2.05 7.699 1.539 2.053 4.102 3.079 7.178 3.079h56.901c4.101 0 7.69-2.566 8.715-6.672 15.379-54.915 65.103-94.947 124.568-94.947 32.296 0 62.028 11.804 84.584 31.82L539.79 494.09c-2.563 2.566-3.076 6.672-2.05 10.264 1.538 3.593 5.126 5.646 8.714 5.646h175.319a9.194 9.194 0 0 0 9.227-9.238V325.238c0-3.592-2.05-7.185-5.639-8.725-1.025-.513-2.563-.513-3.588-.513-2.563 0-4.614 1.026-6.664 2.566l-68.692 69.286c-36.397-33.36-84.071-53.376-136.872-53.376-98.937 0-181.47 70.826-199.412 164.746z" fill="#2C2C2C"/>
</svg>
